web/packages/design/src/ResourceIcon/assets/jamf.svg

<svg width="72" height="72" viewBox="0 0 72 72" fill="none" xmlns="http://www.w3.org/2000/svg">
<g clip-path="url(#clip0_7335_35918)">
<path d="M1.21112 1.69061C1.94567 0.956061 2.93325 0.530117 3.97162 0.5V0.619731H34.7424C37.2567 0.619731 39.1724 2.89461 38.6935 5.40896L34.9819 23.1291C32.4675 34.1443 23.9666 35.5811 17.7406 35.5811H4.21108C2.05593 35.5811 0.259969 33.6654 0.259969 31.63L0.0205078 4.45111C0.0506244 3.41274 0.476569 2.42516 1.21112 1.69061Z" fill="#788EB1"/>
<path d="M39.5324 25.1642C41.8073 16.9028 47.3149 12.9517 56.5341 12.9517C56.5341 12.9517 68.2677 12.4728 68.2677 12.353C70.1834 12.353 71.7399 14.0293 71.7399 15.8252L71.9794 67.4291C71.9794 69.5843 70.3032 71.1408 68.2677 71.1408L3.73293 71.5C1.81724 71.5 0.260742 69.8237 0.260742 68.0278V57.8507C0.260742 55.6955 1.93697 54.139 3.97239 54.139H19.8966C26.8409 54.139 30.7921 51.3852 33.0669 44.9198L39.5324 25.1642Z" fill="#788EB1"/>
</g>
<defs>
<clipPath id="clip0_7335_35918">
<rect width="72" height="72" fill="white"/>
</clipPath>
</defs>
</svg>

<svg xmlns="http://www.w3.org/2000/svg" width="72" height="72" fill="none" viewBox="0 0 72 72"><g fill="#788eb1" clip-path="url(#clip0_7335_35918)"><path d="M1.211 1.69A4.07 4.07 0 0 1 3.971.5v.12h30.771a4.02 4.02 0 0 1 3.952 4.789l-3.712 17.72C32.468 34.144 23.967 35.581 17.74 35.581H4.21c-2.154 0-3.95-1.916-3.95-3.951L.02 4.451a4.07 4.07 0 0 1 1.191-2.76"/><path d="M39.532 25.164c2.275-8.261 7.783-12.212 17.002-12.212 0 0 11.734-.48 11.734-.599 1.915 0 3.472 1.676 3.472 3.472l.24 51.604c0 2.155-1.677 3.712-3.712 3.712L3.733 71.5C1.817 71.5.26 69.824.26 68.028V57.85c0-2.155 1.676-3.712 3.711-3.712h15.925c6.944 0 10.895-2.754 13.17-9.22z"/></g><defs><clipPath id="clip0_7335_35918"><path fill="#fff" d="M0 0h72v72H0z"/></clipPath></defs></svg>
